X: 37564
T: Smash The Windows
R: jig
M: 6/8
K: Dmajor
|:DED F2A|d2f ecA|.G2B .F2A|E2F GFE|
DED .F2A|d2f ecA|Bgf edc|1 d3A2F:|2 d3d2f||
|:.a2f .d2f|A2a agf|.g2e .c2e|Ace gfe|
fed gfe|agf .b2g|fed ABc|1 d3d2f:|2 d3 ABc||
ddd .d2f|ddd .d2f|eAA A2f|gec ABc|
ddd .d2f|ddd def|gec ABc|1 d3 ABc:|2 d3 A2F||

